X:38
T:Bagpipe Hornpipe, A
M:6/4
L:1/4
Q:3/4=100
S:D.Wright, Extraordinary Collection, London 1713
Z:Pete Stewart, 2004 <www.hornpipemusic.co.uk>
K:A
a | A>BAc>BAB>cB | A>BAa>gfe.dc | A>BAc>BAB>cB | a>bfg>fea2A ||
bBbg>fec>BA | BbBbc'ab2B | cdefgag>fe | cdBc>BAa2A ||
A,CA,CB,CECA, | A,CA,CEAG>FE | A,CA,CA,CDCE | GBAG>FEA2A, ||
aA/B/c/A/ cA/B/c/A/ cA/B/c/A/ | ac/A/c/A/af/g/a/f/b2B |
aA/B/c/A/ cA/B/c/A/cA/B/c/A/ | abfg>fea2A ||
A,2EA,2EC>B,A, | A,2EA,2AB2 | C2EC2AG>FE | FGAB>AGA2A, ||
AeAeAecAe | AeAeAebBb | AeAeAecAe | abfg>feA2a |]

